app/assets/images/icons/active/chevron-down.svg

<svg width="32" height="232" viewBox="0 0 32 232" xmlns="http://www.w3.org/2000/svg"><title>chevron-down</title><g fill="none"><path d="M28.5 132.417l-12.5 12.5-3.332-3.334-9.168-9.166 3.334-3.334 9.166 9.168 9.168-9.168 3.332 3.334" fill="#206FAC"/><path d="M28.5 92.417l-12.5 12.5-3.332-3.334-9.168-9.166 3.334-3.334 9.166 9.168 9.168-9.168 3.332 3.334" fill="#fff"/><path d="M28.5 52.417l-12.5 12.5-3.332-3.334-9.168-9.166 3.334-3.334 9.166 9.168 9.168-9.168 3.332 3.334" fill="#67737B"/><path d="M28.5 12.417l-12.5 12.5-3.332-3.334-9.168-9.166 3.334-3.334 9.166 9.168 9.168-9.168 3.332 3.334" fill="#3A434E"/></g></svg>

<svg width="32" height="232" viewBox="0 0 32 232" xmlns="http://www.w3.org/2000/svg"><title>chevron-down</title><g fill="none"><path d="M28.5 132.417l-12.5 12.5-3.332-3.334-9.168-9.166 3.334-3.334L16 138.25l9.168-9.167 3.332 3.334" fill="#206FAC"/><path d="M28.5 92.417l-12.5 12.5-3.332-3.334L3.5 92.417l3.334-3.334L16 98.25l9.168-9.167 3.332 3.334" fill="#fff"/><path d="M28.5 52.417L16 64.917l-3.332-3.334L3.5 52.417l3.334-3.334L16 58.25l9.168-9.167 3.332 3.334" fill="#67737B"/><path d="M28.5 12.417L16 24.917l-3.332-3.334L3.5 12.417l3.334-3.334L16 18.25l9.168-9.167 3.332 3.334" fill="#3A434E"/></g></svg>
